azure-docs/api_bing_entity_search.svg

<?xml version="1.0" encoding="UTF-8"?>
<svg width="512px" height="512px" viewBox="0 0 512 512" version="1.1" xmlns="http://www.w3.org/2000/svg" xmlns:xlink="http://www.w3.org/1999/xlink">
    <!-- Generator: Sketch 46.2 (44496) - http://www.bohemiancoding.com/sketch -->
    <title>bingEntitySearch-wht-bluBG-512p</title>
    <desc>Created with Sketch.</desc>
    <defs></defs>
    <g id="PRODUCTION-ICONS" stroke="none" stroke-width="1" fill="none" fill-rule="evenodd">
        <g id="bingEntitySearch-wht-bluBG-512p">
            <g id="Bing-Entity-Search-API">
                <rect id="Rectangle-3-Copy-29" fill="#0063B1" x="0" y="0" width="512" height="512"></rect>
                <path d="M289.485938,141.333049 C286.419627,125.631716 272.601316,113.776071 256.001138,113.776071 C237.14816,113.776071 221.867804,129.062116 221.867804,147.909404 C221.867804,166.762382 237.14816,182.042738 256.001138,182.042738 C268.960427,182.042738 280.235804,174.823538 286.015716,164.185316 C321.229938,175.676871 347.512604,206.772338 351.967004,244.620516 L159.98976,244.620516 C163.52256,214.623004 180.805404,188.869404 205.347271,173.725582 C201.814471,166.802204 199.681138,159.059627 199.26016,150.856249 C161.912604,171.051804 136.534471,210.555449 136.534471,255.998293 C136.534471,310.349938 172.84096,356.191004 222.516338,370.669227 C225.582649,386.364871 239.40096,398.220516 256.001138,398.220516 C274.848427,398.220516 290.134471,382.94016 290.134471,364.087182 C290.134471,345.239893 274.848427,329.953849 256.001138,329.953849 C243.03616,329.953849 231.766471,337.178738 225.98656,347.81696 C190.766649,336.319716 164.489671,305.229938 160.035271,267.376071 L352.006827,267.376071 C348.479716,297.379271 331.196871,323.127182 306.649316,338.271004 C310.187804,345.200071 312.321138,352.93696 312.736427,361.146027 C350.089671,340.950471 375.467804,301.446827 375.467804,255.998293 C375.467804,201.652338 339.161316,155.811271 289.485938,141.333049" id="Fill-1" fill="#FFFFFF"></path>
            </g>
        </g>
    </g>
</svg>

<svg width="512" height="512" xmlns="http://www.w3.org/2000/svg"><g fill="none" fill-rule="evenodd"><path fill="#0063B1" d="M0 0h512v512H0z"/><path d="M289.486 141.333C286.42 125.632 272.6 113.776 256 113.776c-18.853 0-34.133 15.286-34.133 34.133 0 18.853 15.28 34.134 34.133 34.134 12.96 0 24.235-7.22 30.015-17.858 35.214 11.492 61.497 42.587 65.951 80.436H159.99c3.533-29.998 20.815-55.752 45.357-70.895-3.533-6.924-5.666-14.666-6.087-22.87-37.347 20.196-62.726 59.7-62.726 105.142 0 54.352 36.307 100.193 85.982 114.671 3.067 15.696 16.885 27.552 33.485 27.552 18.847 0 34.133-15.28 34.133-34.134 0-18.847-15.286-34.133-34.133-34.133-12.965 0-24.235 7.225-30.014 17.863-35.22-11.497-61.497-42.587-65.952-80.44h191.972c-3.527 30.002-20.81 55.75-45.358 70.894 3.539 6.93 5.672 14.666 6.087 22.875 37.354-20.196 62.732-59.7 62.732-105.148 0-54.346-36.307-100.187-85.982-114.665" fill="#FFF"/></g></svg>
